img/advantages-1.svg

<svg width="64" height="66" viewBox="0 0 64 66" fill="none" xmlns="http://www.w3.org/2000/svg">
<g clip-path="url(#clip0_96182_390)">
<path d="M37.95 58.4074H20.2875C11.375 58.4074 4.125 50.9308 4.125 41.7398V25.9359C4.125 24.9047 4.9375 24.0797 5.925 24.0797C6.9125 24.0797 7.725 24.9176 7.725 25.9359V41.7527C7.725 48.8941 13.35 54.6949 20.275 54.6949H37.9375C38.9375 54.6949 39.7375 55.5328 39.7375 56.5512C39.75 57.5824 38.95 58.4074 37.95 58.4074Z" fill="#2D527C"/>
<path d="M48.4625 57.5824C47.7125 57.5824 47.025 57.1055 46.7625 56.332C46.4375 55.3652 46.925 54.3082 47.8625 53.9601C52.8875 52.1426 56.2625 47.2312 56.2625 41.7398V39.8707C56.2625 38.8394 57.075 38.0144 58.0625 38.0144C59.05 38.0144 59.8625 38.8523 59.8625 39.8707V41.7398C59.8625 48.8039 55.525 55.1332 49.05 57.4664C48.8625 57.5437 48.6625 57.5824 48.4625 57.5824Z" fill="#2D527C"/>
<path d="M58.5875 32.0719H5.4125C3.425 32.0719 1.8125 30.409 1.8125 28.3594C1.8125 26.3098 3.425 24.6469 5.4125 24.6469H58.6C60.5875 24.6469 62.2 26.3098 62.2 28.3594C62.2 30.409 60.5875 32.0719 58.5875 32.0719Z" fill="#CEE8FA"/>
<path d="M58.5875 33.9281H5.4125C2.425 33.9281 0 31.4274 0 28.3465C0 25.2656 2.425 22.7649 5.4125 22.7649H58.6C61.5875 22.7649 64.0125 25.2656 64.0125 28.3465C64.0125 31.4274 61.575 33.9281 58.5875 33.9281ZM5.4125 26.4903C4.4125 26.4903 3.6125 27.3281 3.6125 28.3465C3.6125 29.3649 4.425 30.2027 5.4125 30.2027H58.6C59.6 30.2027 60.4 29.3649 60.4 28.3465C60.4 27.3281 59.5875 26.4903 58.6 26.4903H5.4125Z" fill="#2D527C"/>
<path d="M14.2375 61.9008C15.9772 61.9008 17.3875 60.4464 17.3875 58.6523C17.3875 56.8582 15.9772 55.4039 14.2375 55.4039C12.4978 55.4039 11.0875 56.8582 11.0875 58.6523C11.0875 60.4464 12.4978 61.9008 14.2375 61.9008Z" fill="#CEE8FA"/>
<path d="M14.2375 63.7699C11.5 63.7699 9.27502 61.4754 9.27502 58.6523C9.27502 55.8293 11.5 53.5347 14.2375 53.5347C16.975 53.5347 19.2 55.8293 19.2 58.6523C19.2 61.4754 16.975 63.7699 14.2375 63.7699ZM14.2375 57.2601C13.4875 57.2601 12.8875 57.8918 12.8875 58.6523C12.8875 59.4129 13.5 60.0445 14.2375 60.0445C14.975 60.0445 15.5875 59.4129 15.5875 58.6523C15.5875 57.8918 14.9875 57.2601 14.2375 57.2601Z" fill="#2D527C"/>
<path d="M49.7626 61.9008C51.5023 61.9008 52.9126 60.4464 52.9126 58.6523C52.9126 56.8582 51.5023 55.4039 49.7626 55.4039C48.0229 55.4039 46.6125 56.8582 46.6125 58.6523C46.6125 60.4464 48.0229 61.9008 49.7626 61.9008Z" fill="#CEE8FA"/>
<path d="M49.7626 63.7699C47.0251 63.7699 44.8 61.4754 44.8 58.6523C44.8 55.8293 47.0251 53.5347 49.7626 53.5347C52.5001 53.5347 54.7251 55.8293 54.7251 58.6523C54.7251 61.4754 52.4876 63.7699 49.7626 63.7699ZM49.7626 57.2601C49.0126 57.2601 48.4126 57.8918 48.4126 58.6523C48.4126 59.4129 49.0251 60.0445 49.7626 60.0445C50.5001 60.0445 51.1126 59.4129 51.1126 58.6523C51.1126 57.8918 50.5001 57.2601 49.7626 57.2601Z" fill="#2D527C"/>
<path d="M40.425 11.434H23.575C22.575 11.434 21.775 10.5961 21.775 9.57773C21.775 8.55937 22.5875 7.72148 23.575 7.72148H40.4375C41.4375 7.72148 42.2375 8.55937 42.2375 9.57773C42.2375 10.5961 41.425 11.434 40.425 11.434Z" fill="#F0BF5F"/>
<path d="M41.0125 15.0562C40.0125 15.0562 39.2125 14.2183 39.2125 13.2V4.08631C39.2125 3.05506 40.025 2.23006 41.0125 2.23006C42 2.23006 42.8125 3.06795 42.8125 4.08631V13.2C42.8125 14.2312 42.0125 15.0562 41.0125 15.0562Z" fill="#F0BF5F"/>
<path d="M44.2625 5.95562H37.775C36.775 5.95562 35.975 5.11773 35.975 4.09937C35.975 3.08101 36.7875 2.24312 37.775 2.24312H44.2625C45.2625 2.24312 46.0625 3.08101 46.0625 4.09937C46.0625 5.11773 45.25 5.95562 44.2625 5.95562Z" fill="#F0BF5F"/>
<path d="M22.9875 15.0562C21.9875 15.0562 21.1875 14.2183 21.1875 13.2V4.08631C21.1875 3.05506 22 2.23006 22.9875 2.23006C23.975 2.23006 24.7875 3.06795 24.7875 4.08631V13.2C24.7875 14.2312 23.9875 15.0562 22.9875 15.0562Z" fill="#F0BF5F"/>
<path d="M26.225 5.95748H19.7375C18.7375 5.95748 17.9375 5.11959 17.9375 4.10123C17.9375 3.08287 18.75 2.24498 19.7375 2.24498H26.225C27.225 2.24498 28.025 3.08287 28.025 4.10123C28.025 5.11959 27.225 5.95748 26.225 5.95748Z" fill="#F0BF5F"/>
<path d="M32 19.3359C31 19.3359 30.2 18.498 30.2 17.4797V9.75818C30.2 8.72693 31.0125 7.90193 32 7.90193C32.9875 7.90193 33.7999 8.73982 33.7999 9.75818V17.4797C33.7999 18.498 33 19.3359 32 19.3359Z" fill="#F0BF5F"/>
<path d="M24.4625 43.1578H14.75C13.525 43.1578 12.525 42.1266 12.525 40.8633V24.6211H26.675V40.8633C26.675 42.1395 25.6875 43.1578 24.4625 43.1578Z" fill="#CEE8FA"/>
<path d="M24.4625 45.027H14.75C12.5375 45.027 10.725 43.1707 10.725 40.8762V24.634C10.725 23.6028 11.5375 22.7778 12.525 22.7778H26.675C27.675 22.7778 28.475 23.6156 28.475 24.634V40.8762C28.4875 43.1578 26.675 45.027 24.4625 45.027ZM14.3375 26.4903V40.8762C14.3375 41.1082 14.525 41.3016 14.75 41.3016H24.4625C24.6875 41.3016 24.875 41.1082 24.875 40.8762V26.4903H14.3375Z" fill="#2D527C"/>
</g>
<defs>
<clipPath id="clip0_96182_390">
<rect width="64" height="66" fill="white"/>
</clipPath>
</defs>
</svg>

<svg width="64" height="66" fill="none" xmlns="http://www.w3.org/2000/svg"><g clip-path="url(#a)"><path d="M37.95 58.407H20.287c-8.912 0-16.162-7.476-16.162-16.667V25.936c0-1.031.813-1.856 1.8-1.856.987 0 1.8.838 1.8 1.856v15.817c0 7.141 5.625 12.942 12.55 12.942h17.663c1 0 1.8.838 1.8 1.856.012 1.031-.788 1.856-1.788 1.856ZM48.462 57.582c-.75 0-1.437-.477-1.7-1.25-.325-.967.163-2.024 1.1-2.372 5.026-1.817 8.4-6.729 8.4-12.22v-1.87c0-1.03.813-1.856 1.8-1.856.988 0 1.8.838 1.8 1.857v1.869c0 7.064-4.337 13.393-10.812 15.726a1.542 1.542 0 0 1-.587.116Z" fill="#2D527C"/><path d="M58.587 32.072H5.413c-1.987 0-3.6-1.663-3.6-3.713s1.613-3.712 3.6-3.712H58.6c1.987 0 3.6 1.663 3.6 3.712 0 2.05-1.613 3.713-3.613 3.713Z" fill="#CEE8FA"/><path d="M58.587 33.928H5.413c-2.987 0-5.412-2.5-5.412-5.581 0-3.081 2.425-5.582 5.412-5.582H58.6c2.987 0 5.413 2.5 5.413 5.581 0 3.081-2.438 5.582-5.426 5.582ZM5.413 26.49c-1 0-1.8.838-1.8 1.857 0 1.018.813 1.856 1.8 1.856H58.6c1 0 1.8-.838 1.8-1.857 0-1.018-.813-1.856-1.8-1.856H5.412Z" fill="#2D527C"/><path d="M14.238 61.9c1.74 0 3.15-1.454 3.15-3.248 0-1.794-1.41-3.248-3.15-3.248s-3.15 1.454-3.15 3.248c0 1.794 1.41 3.249 3.15 3.249Z" fill="#CEE8FA"/><path d="M14.238 63.77c-2.738 0-4.963-2.295-4.963-5.118 0-2.823 2.225-5.117 4.963-5.117 2.737 0 4.962 2.294 4.962 5.117s-2.225 5.118-4.962 5.118Zm0-6.51c-.75 0-1.35.632-1.35 1.392 0 .76.612 1.392 1.35 1.392.737 0 1.35-.631 1.35-1.392 0-.76-.6-1.392-1.35-1.392Z" fill="#2D527C"/><path d="M49.763 61.9c1.74 0 3.15-1.454 3.15-3.248 0-1.794-1.41-3.248-3.15-3.248s-3.15 1.454-3.15 3.248c0 1.794 1.41 3.249 3.15 3.249Z" fill="#CEE8FA"/><path d="M49.763 63.77c-2.738 0-4.963-2.295-4.963-5.118 0-2.823 2.225-5.117 4.963-5.117 2.737 0 4.962 2.294 4.962 5.117s-2.237 5.118-4.962 5.118Zm0-6.51c-.75 0-1.35.632-1.35 1.392 0 .76.612 1.392 1.35 1.392.737 0 1.35-.631 1.35-1.392 0-.76-.613-1.392-1.35-1.392Z" fill="#2D527C"/><path d="M40.425 11.434h-16.85c-1 0-1.8-.838-1.8-1.856 0-1.019.813-1.857 1.8-1.857h16.863c1 0 1.8.838 1.8 1.857 0 1.018-.813 1.856-1.813 1.856Z" fill="#F0BF5F"/><path d="M41.013 15.056c-1 0-1.8-.838-1.8-1.856V4.086c0-1.03.812-1.856 1.8-1.856.987 0 1.8.838 1.8 1.856V13.2c0 1.031-.8 1.856-1.8 1.856Z" fill="#F0BF5F"/><path d="M44.263 5.956h-6.488c-1 0-1.8-.838-1.8-1.857 0-1.018.813-1.856 1.8-1.856h6.488c1 0 1.8.838 1.8 1.856 0 1.019-.813 1.857-1.8 1.857ZM22.988 15.056c-1 0-1.8-.838-1.8-1.856V4.086c0-1.03.812-1.856 1.8-1.856.987 0 1.8.838 1.8 1.856V13.2c0 1.031-.8 1.856-1.8 1.856Z" fill="#F0BF5F"/><path d="M26.225 5.957h-6.488c-1 0-1.8-.837-1.8-1.856 0-1.018.813-1.856 1.8-1.856h6.488c1 0 1.8.838 1.8 1.856 0 1.019-.8 1.856-1.8 1.856ZM32 19.336c-1 0-1.8-.838-1.8-1.856V9.758c0-1.031.813-1.856 1.8-1.856.987 0 1.8.838 1.8 1.856v7.722c0 1.018-.8 1.856-1.8 1.856Z" fill="#F0BF5F"/><path d="M24.462 43.158H14.75c-1.225 0-2.225-1.031-2.225-2.295V24.621h14.15v16.242c0 1.276-.988 2.295-2.213 2.295Z" fill="#CEE8FA"/><path d="M24.462 45.027H14.75c-2.213 0-4.025-1.856-4.025-4.15V24.633c0-1.031.813-1.856 1.8-1.856h14.15c1 0 1.8.838 1.8 1.856v16.242c.012 2.282-1.8 4.151-4.013 4.151ZM14.338 26.49v14.386c0 .232.187.426.412.426h9.712a.423.423 0 0 0 .413-.426V26.49H14.338Z" fill="#2D527C"/></g><defs><clipPath id="a"><path fill="#fff" d="M0 0h64v66H0z"/></clipPath></defs></svg>
